FINK
CUT[DIE ZEITEN BRUEDER SIND NICHT MEHR]
REG[Europa, Mitteleuropa, Deutschland]
KEY[F0725  04  D 3/4]
MEL[-5  1-7-6  -5-4-3  -2-3-4  -30
    -5  -6-5-6  -7-6-7  1_3  10
    -5  1-7-6  -5-4-3  -2-3-4  -30
    -5  -6-5-6  -7-6-7  1_3  10
    -5  -513  2-7-5  1-6-4#  -50
    -5  -513  2-7-5  1-6-4#  -50
    -5  -3-1-5  1_3  21-7  10
    -5  -3-1-5  1_3  21-7  10 //] >>
FCT[Geselligkeits -, Moral - Lied]
